web-components-icons/e600-editor/SVG/table-column-groups.svg

<?xml version="1.0" encoding="utf-8"?>
<!-- Generator: Adobe Illustrator 24.2.0, SVG Export Plug-In . SVG Version: 6.00 Build 0)  -->
<svg version="1.1" id="Layer_1" xmlns="http://www.w3.org/2000/svg" xmlns:xlink="http://www.w3.org/1999/xlink" x="0px" y="0px"
	 width="512px" height="512px" viewBox="0 0 512 512" xml:space="preserve">
<path id="Table_column_groups" d="M32,32v416h416V32H32z M288,64v64l-64-64H288z M288,384l-96-96v-64l96,96V384z M192,96l96,96v64
	l-96-96V96z M64,64h96v96H64V64z M64,192h96v96H64V192z M64,416v-96h96v96H64z M192,416v-64l64,64H192z M416,416h-96v-96h96V416z
	 M416,288h-96v-96h96V288z M416,160h-96V64h96V160z"/>
</svg>

<svg xmlns="http://www.w3.org/2000/svg" viewBox="0 0 512 512"><title>table-column-groups</title><g id="Layer_38" data-name="Layer 38"><path id="Table_column_groups" data-name="Table column groups" d="M32,32V448H448V32ZM288,64v64L224,64Zm0,320-96-96V224l96,96ZM192,96l96,96v64l-96-96ZM64,64h96v96H64Zm0,128h96v96H64Zm0,224V320h96v96Zm128,0V352l64,64Zm224,0H320V320h96Zm0-128H320V192h96Zm0-128H320V64h96Z"/></g></svg>
